X: 43401
T: X
R: jig
M: 6/8
K: Dmajor
M:7/8
|:e|fd AD FDF|GD BD GBD|FA dF dcd|ef gf e^de|
fd AD FAD|GD GB BAG|1 FA dF dce|fd ce d2:|2 FA dG BdB|Ac ec d2||
G|FA dF AdF|GB dG BdG|Ac eA ceA|fd BA BAG|
FA dF d2 F|GB dG d2 G|Ac eA e2 A|gf ed c/B/AG|
F2 dF AdF|G2 dG BdG|A2 eA cde|fd BA A^G=G|
FB cd F2 d|GB cd G2 d|Ac de Aca|g2 ec d2||

